X:2985
T:Jenny Lind's Polka
O:england
R:polka
D:Mary Bergin: Feadoga Stain 2
M:2/4
L:1/8
K:D
A/G/|:FA/F/ GB|Af f/e/f|Ae e/d/e|Ad d/c/d/A/|
FA/F/ GB|Af f>f|ge e/c/A/c/|1 ed dA/G/:|2 ed d (3d/e/f/||
K:G
|:gg/f/ e/f/g/e/|dB B/A/G/B/|cA A/F/D/F/|AG G (3d/e/f/|
~g>f e/f/g/e/|dB B/A/G/B/|cA A/F/D/F/|1 AG G (3d/e/f/:|2 AG G||


